X: 6170
T: Captain White's
R: jig
M: 6/8
K: Dmajor
DFA d2 f|edc B2 d|A2 d F2 B|AGF E2 F|
DFA d2 f|edc B2 d|A2 d F2 B|ABc d2||
e^de A2 f|e^de a2 f|efe dcB|A2 B c2 f|
e^de A2 f|e^de a2 f|efe dcB|ABA GFE||
D2 f fef|d2 A A2 A|A2 f fef|g2 e e2 e|
A2 f fef|d2 A A2 A|Bcd edc|BAG FGE||

